img/svg/youtube.svg

<svg width="16" height="16" viewBox="0 0 16 16" fill="none" xmlns="http://www.w3.org/2000/svg">
<path d="M15.425 4.27471C15.25 3.59971 14.725 3.07471 14.05 2.89971C12.85 2.57471 8 2.57471 8 2.57471C8 2.57471 3.15 2.57471 1.95 2.89971C1.275 3.07471 0.75 3.59971 0.575 4.27471C0.25 5.49971 0.25 7.99971 0.25 7.99971C0.25 7.99971 0.25 10.5247 0.575 11.7247C0.75 12.3997 1.275 12.9247 1.95 13.0997C3.15 13.4247 8 13.4247 8 13.4247C8 13.4247 12.85 13.4247 14.05 13.0997C14.725 12.9247 15.25 12.3997 15.425 11.7247C15.75 10.5247 15.75 7.99971 15.75 7.99971C15.75 7.99971 15.75 5.49971 15.425 4.27471ZM6.45 10.3247V5.67471L10.475 7.99971L6.45 10.3247Z" fill="#111928"/>
</svg>

<?xml version="1.0" encoding="utf-8"?><svg width="16" height="16" xmlns="http://www.w3.org/2000/svg" viewBox="0 0 16 16"><path d="M15.425 4.275c-.175-.675-.7-1.2-1.375-1.375C12.85 2.575 8 2.575 8 2.575s-4.85 0-6.05.325c-.675.175-1.2.7-1.375 1.375C.25 5.5.25 8 .25 8s0 2.525.325 3.725c.175.675.7 1.2 1.375 1.375 1.2.325 6.05.325 6.05.325s4.85 0 6.05-.325c.675-.175 1.2-.7 1.375-1.375.325-1.2.325-3.725.325-3.725s0-2.5-.325-3.725Zm-8.975 6.05v-4.65L10.475 8 6.45 10.325Z"/></svg>
